X:452
%%etbk:tnset id:142,pos:2,rep:3x,ant:
%%etbk:tnset id:343,pos:1,rep:3x,ant:
%%etbk:wsite http://thesession.org/tunes/449
%%etbk:pldat 2016-06-21T15:35,2016-05-04T14:13,2016-03-24T15:14,2016-03-11T17:12,2016-03-10T17:54,2016-03-09T15:09,2016-03-07T18:12,2015-10-29T18:02,2015-10-26T17:54,2015-10-22T19:00,2015-09-30T16:39,2015-06-23T19:05,2015-03-13T18:36,2015-03-12T18:45,2015-03-09T17:47,2014-11-06T18:45,2014-11-04T15:13,2014-10-28T16:59,2014-08-21T19:46,2014-08-14T19:44,2014-08-13T20:01,2014-08-12T19:28,2014-08-11T19:51,2014-08-10T11:35,2014-06-25T16:18,2014-03-06T18:30,2014-03-04T17:57,2014-03-02T16:22,2014-02-24T18:50,2013-10-29T16:32,2013-10-27T14:39,2013-10-16T16:11,2013-10-10T20:01
T: Si Bheag Si Mhor
Z: Piano Box Version by Martin Fleischmann
H: Created 2013-02-19 /  Last Modified 2013-02-19
R: waltz
M: 3/4
L: 1/8
K: Dmaj
!1!de |: "D"!3!f3e !1!d2 | !1!d3e !1!d2 | "G"!2!B3{d}B !1!A2 | "D"!2!F4 !1!A2 | "A"{d}!2!BA Bc !4!d2 | !2!e3{g}e de| "D"!3!f4 e2 |
!1!d4 !5!f2 | "G"!2!B4 !5!e2 | "D"!1!A4 !5!d2 | "A"!3!F2{A}F2 E2 | "D"!1!D4 !5!f2 | "G"!2!B4 !5!e2 | "D"!1!A4 !4!dc | !4!d6 | -d4 !1!de :|
|: "D"!3!f3e d2 | {g}!2!ed e!3!f !4!a2 | "G"!5!b4 !4!a2 | "D"!3!f4 ed | "A"!2!e2e2 !5!a2 | "D"!3!f4 e!1!d | "G"!4!d4 !2!B2 | !2!B4-{d}B!1!A |
"D"!3!F4 E2 | !1!D4 !5!f2| "G"!2!B4 !5!e2 | "D"!1!A4 !2!a2 | "A"!3!ba !1!g!3!f e!?!d | !2!e3{g}e !1!d!2!c | "D"!1!d6 |1 -d4 de:|2 !1!d6 ||


